X:323
T:B323-  The Nightingale
Q:1/4=120
L:1/4
M:C|
K:G
B3/2A/4B/4Gd|B3G/A/|BGB^c|d3B/c/|\
dddB/c/|dDDB/c/|dc/B/cd|eEE3/2F/|\
G/A/B/c/ dG|F3/4G/4 A/4G/4F/4E/4 Dd/c/|B/c/d/B/A3/2G/|G3c/d/|\
ecc3/2d/|e/c/e/c/ e/c/e/c/|e/c/e/c/B3/2c/|d/A/B/G/FD|\
d2d2|d2d2|G,/g/f/e/ d/e/d/c/|B/c/B/A/ G/A/B/c/|\
D/d/d/d/ d/d/d/d/ |D/d/d/d/ d/d/d/d/|D/e/c/B/A3/2G/|G4|]
